assets/img/OurServices/master.svg

<svg width="47" height="47" viewBox="0 0 47 47" fill="none" xmlns="http://www.w3.org/2000/svg">
<circle cx="23.5" cy="23.5" r="22" fill="#EEEDEB" stroke="#3B2E16" stroke-width="3"/>
<g clip-path="url(#clip0_1360_1064)">
<path d="M17.5055 15.3125C16.6796 15.3125 16.0098 15.9721 16.0098 16.7855V31.9355H27.22V33.0679C27.22 33.7115 27.6386 34.2575 28.2223 34.4578C28.4637 34.5111 28.6338 34.5408 28.7132 34.5408C29.5391 34.5408 30.2063 33.8812 30.2063 33.0679V16.7855C30.2063 15.9721 30.8736 15.3125 31.6995 15.3125H17.5055Z" fill="#FEFEFE"/>
<path opacity="0.05" d="M18.7154 19.0232V28.2308C18.7154 30.279 20.3778 31.9367 22.426 31.9367H16.0098V16.7892C16.0098 15.9746 16.6814 15.3125 17.5055 15.3125H22.426C20.3778 15.3125 18.7154 16.975 18.7154 19.0232Z" fill="black"/>
<path d="M30.2059 18.6705V16.9495C30.2059 16.1361 30.8731 15.4766 31.699 15.4766C32.5249 15.4766 33.1922 16.1361 33.1922 16.9495V18.108C33.1922 18.4187 32.9403 18.6705 32.6297 18.6705H30.2059ZM28.7126 34.7045H15.274C14.4481 34.7045 13.7783 34.0449 13.7783 33.2315V32.6617C13.7783 32.351 14.0302 32.0992 14.3408 32.0992H27.2194V33.2315C27.2195 34.0449 27.8868 34.7045 28.7126 34.7045Z" fill="#E6E8E7"/>
<path d="M32.3867 22.6055H34.7379V32.013H32.3867V22.6055Z" fill="white"/>
<path opacity="0.05" d="M32.3867 22.6055H33.3585V32.0131H32.3867V22.6055Z" fill="black"/>
<path d="M32.3867 32.0117H34.7379V33.04H32.3867V32.0117Z" fill="#E6E8E7"/>
<path d="M32.3867 33.0391V33.6352C32.3867 34.2843 32.913 34.8106 33.5621 34.8106C34.2113 34.8106 34.7375 34.2843 34.7375 33.6352V33.0391H32.3867Z" fill="white"/>
<path d="M34.7384 22.6058H32.3887L32.9773 21.5258L33.0683 21.3575C33.2805 20.9649 33.8435 20.964 34.057 21.3558L34.1498 21.5259L34.7384 22.6058Z" fill="white"/>
<path d="M34.151 21.5266H32.9785L33.3043 20.924C33.4154 20.7184 33.7102 20.718 33.822 20.9231L34.151 21.5266Z" fill="#405D6B"/>
<path d="M11.2617 11.75V22.0304C11.2617 22.5316 11.8678 22.7826 12.222 22.4281L22.4983 12.1476C22.8525 11.7933 22.6015 11.1875 22.1004 11.1875H11.8242C11.5136 11.1875 11.2617 11.4393 11.2617 11.75ZM13.447 13.3728H18.1818L13.447 18.1077V13.3728Z" fill="white"/>
<path opacity="0.05" d="M21.5385 11.1875L11.2617 21.4693V22.0304C11.2617 22.5316 11.8678 22.7825 12.222 22.4281L22.4983 12.1476C22.8525 11.7933 22.6015 11.1875 22.1004 11.1875H21.5385Z" fill="white"/>
<mask id="path-13-inside-1_1360_1064" fill="white">
<path d="M32.6294 18.8567C33.0429 18.8567 33.3794 18.5202 33.3794 18.1067V16.9482C33.3794 16.0336 32.627 15.2895 31.7018 15.2879C31.7007 15.2879 31.6998 15.2873 31.6987 15.2873H19.625L22.6308 12.2803C23.1033 11.8076 22.769 11 22.1005 11H11.8242C11.4107 11 11.0742 11.3364 11.0742 11.75V22.0304C11.0742 22.6986 11.8818 23.0338 12.3546 22.5607L15.8213 19.0925V31.9105H14.3405C13.927 31.9105 13.5905 32.2469 13.5905 32.6605V33.2303C13.5905 34.1459 14.3456 34.8908 15.2738 34.8908H28.7124C29.6392 34.8908 30.393 34.1459 30.393 33.2303V18.8567H32.6294ZM33.0044 16.9482V18.1067C33.0044 18.3135 32.8362 18.4817 32.6294 18.4817H30.393V16.9482C30.393 16.2394 30.9788 15.6628 31.6987 15.6628C32.4187 15.6628 33.0044 16.2394 33.0044 16.9482ZM12.0895 22.2956C11.8522 22.5325 11.4493 22.3656 11.4493 22.0305V21.4935H12.1131C12.1628 21.4935 12.2105 21.4738 12.2457 21.4386C12.2809 21.4035 12.3006 21.3558 12.3006 21.306C12.3006 21.2563 12.2809 21.2086 12.2457 21.1734C12.2105 21.1383 12.1628 21.1185 12.1131 21.1185H11.4493V20.1539H12.1131C12.1628 20.1539 12.2105 20.1342 12.2457 20.099C12.2809 20.0639 12.3006 20.0162 12.3006 19.9664C12.3006 19.9167 12.2809 19.869 12.2457 19.8339C12.2105 19.7987 12.1628 19.7789 12.1131 19.7789H11.4493V18.8143H12.1131C12.1628 18.8143 12.2105 18.7946 12.2457 18.7594C12.2809 18.7243 12.3006 18.6766 12.3006 18.6268C12.3006 18.5771 12.2809 18.5294 12.2457 18.4943C12.2105 18.4591 12.1628 18.4393 12.1131 18.4393H11.4493V17.4748H12.1131C12.1628 17.4748 12.2105 17.455 12.2457 17.4198C12.2809 17.3847 12.3006 17.337 12.3006 17.2873C12.3006 17.2375 12.2809 17.1898 12.2457 17.1547C12.2105 17.1195 12.1628 17.0998 12.1131 17.0998H11.4493V16.1352H12.1131C12.1628 16.1352 12.2105 16.1154 12.2457 16.0802C12.2809 16.0451 12.3006 15.9974 12.3006 15.9477C12.3006 15.8979 12.2809 15.8502 12.2457 15.8151C12.2105 15.7799 12.1628 15.7602 12.1131 15.7602H11.4493V14.7955H12.1131C12.1628 14.7955 12.2105 14.7757 12.2457 14.7406C12.2809 14.7054 12.3006 14.6577 12.3006 14.608C12.3006 14.5582 12.2809 14.5105 12.2457 14.4754C12.2105 14.4402 12.1628 14.4205 12.1131 14.4205H11.4493V13.4558H12.1131C12.1628 13.4558 12.2105 13.436 12.2457 13.4009C12.2809 13.3657 12.3006 13.318 12.3006 13.2683C12.3006 13.2186 12.2809 13.1709 12.2457 13.1357C12.2105 13.1005 12.1628 13.0808 12.1131 13.0808H11.4493V11.75C11.4493 11.5431 11.6175 11.375 11.8243 11.375H12.7223V12.0379C12.7223 12.0876 12.7421 12.1353 12.7772 12.1704C12.8124 12.2056 12.8601 12.2254 12.9098 12.2254C12.9595 12.2254 13.0072 12.2056 13.0424 12.1704C13.0775 12.1353 13.0973 12.0876 13.0973 12.0379V11.375H14.0619V12.038C14.0619 12.0877 14.0816 12.1354 14.1168 12.1705C14.152 12.2057 14.1997 12.2255 14.2494 12.2255C14.2991 12.2255 14.3468 12.2057 14.382 12.1705C14.4171 12.1354 14.4369 12.0877 14.4369 12.038V11.375H15.4014V12.038C15.4014 12.0877 15.4212 12.1354 15.4564 12.1705C15.4915 12.2057 15.5392 12.2255 15.5889 12.2255C15.6387 12.2255 15.6864 12.2057 15.7215 12.1705C15.7567 12.1354 15.7764 12.0877 15.7764 12.038V11.375H16.741V12.038C16.741 12.0877 16.7608 12.1354 16.7959 12.1705C16.8311 12.2057 16.8788 12.2255 16.9285 12.2255C16.9783 12.2255 17.026 12.2057 17.0611 12.1705C17.0963 12.1354 17.116 12.0877 17.116 12.038V11.375H18.0807V12.038C18.0807 12.0877 18.1005 12.1354 18.1356 12.1705C18.1708 12.2057 18.2185 12.2255 18.2682 12.2255C18.3179 12.2255 18.3656 12.2057 18.4008 12.1705C18.436 12.1354 18.4557 12.0877 18.4557 12.038V11.375H19.4203V12.038C19.4203 12.0877 19.4401 12.1354 19.4752 12.1705C19.5104 12.2057 19.5581 12.2255 19.6078 12.2255C19.6575 12.2255 19.7052 12.2057 19.7404 12.1705C19.7756 12.1354 19.7953 12.0877 19.7953 12.038V11.375H20.7599V12.038C20.7599 12.0877 20.7797 12.1354 20.8148 12.1705C20.85 12.2057 20.8977 12.2255 20.9474 12.2255C20.9971 12.2255 21.0448 12.2057 21.08 12.1705C21.1152 12.1354 21.1349 12.0877 21.1349 12.038V11.375H22.1004C22.4356 11.375 22.6025 11.7781 22.3657 12.0151L12.0895 22.2956ZM15.2738 34.5157C14.5523 34.5157 13.9655 33.9391 13.9655 33.2302V32.6604C13.9655 32.4536 14.1337 32.2854 14.3405 32.2854H26.6567C26.8635 32.2854 27.0317 32.4536 27.0317 32.6604V33.2302C27.0317 33.7479 27.2726 34.211 27.6497 34.5157H15.2738ZM30.018 33.2302C30.018 33.9359 29.432 34.5271 28.6902 34.5147C27.8584 34.4538 27.4067 33.8497 27.4067 33.2302V32.6604C27.4067 32.2469 27.0703 31.9104 26.6567 31.9104H16.1964V18.7174L19.2502 15.6624H30.636C30.2712 15.9556 30.0191 16.4331 30.0181 16.9451L30.018 16.9479V33.2302Z"/>
</mask>
<path d="M32.6294 18.8567C33.0429 18.8567 33.3794 18.5202 33.3794 18.1067V16.9482C33.3794 16.0336 32.627 15.2895 31.7018 15.2879C31.7007 15.2879 31.6998 15.2873 31.6987 15.2873H19.625L22.6308 12.2803C23.1033 11.8076 22.769 11 22.1005 11H11.8242C11.4107 11 11.0742 11.3364 11.0742 11.75V22.0304C11.0742 22.6986 11.8818 23.0338 12.3546 22.5607L15.8213 19.0925V31.9105H14.3405C13.927 31.9105 13.5905 32.2469 13.5905 32.6605V33.2303C13.5905 34.1459 14.3456 34.8908 15.2738 34.8908H28.7124C29.6392 34.8908 30.393 34.1459 30.393 33.2303V18.8567H32.6294ZM33.0044 16.9482V18.1067C33.0044 18.3135 32.8362 18.4817 32.6294 18.4817H30.393V16.9482C30.393 16.2394 30.9788 15.6628 31.6987 15.6628C32.4187 15.6628 33.0044 16.2394 33.0044 16.9482ZM12.0895 22.2956C11.8522 22.5325 11.4493 22.3656 11.4493 22.0305V21.4935H12.1131C12.1628 21.4935 12.2105 21.4738 12.2457 21.4386C12.2809 21.4035 12.3006 21.3558 12.3006 21.306C12.3006 21.2563 12.2809 21.2086 12.2457 21.1734C12.2105 21.1383 12.1628 21.1185 12.1131 21.1185H11.4493V20.1539H12.1131C12.1628 20.1539 12.2105 20.1342 12.2457 20.099C12.2809 20.0639 12.3006 20.0162 12.3006 19.9664C12.3006 19.9167 12.2809 19.869 12.2457 19.8339C12.2105 19.7987 12.1628 19.7789 12.1131 19.7789H11.4493V18.8143H12.1131C12.1628 18.8143 12.2105 18.7946 12.2457 18.7594C12.2809 18.7243 12.3006 18.6766 12.3006 18.6268C12.3006 18.5771 12.2809 18.5294 12.2457 18.4943C12.2105 18.4591 12.1628 18.4393 12.1131 18.4393H11.4493V17.4748H12.1131C12.1628 17.4748 12.2105 17.455 12.2457 17.4198C12.2809 17.3847 12.3006 17.337 12.3006 17.2873C12.3006 17.2375 12.2809 17.1898 12.2457 17.1547C12.2105 17.1195 12.1628 17.0998 12.1131 17.0998H11.4493V16.1352H12.1131C12.1628 16.1352 12.2105 16.1154 12.2457 16.0802C12.2809 16.0451 12.3006 15.9974 12.3006 15.9477C12.3006 15.8979 12.2809 15.8502 12.2457 15.8151C12.2105 15.7799 12.1628 15.7602 12.1131 15.7602H11.4493V14.7955H12.1131C12.1628 14.7955 12.2105 14.7757 12.2457 14.7406C12.2809 14.7054 12.3006 14.6577 12.3006 14.608C12.3006 14.5582 12.2809 14.5105 12.2457 14.4754C12.2105 14.4402 12.1628 14.4205 12.1131 14.4205H11.4493V13.4558H12.1131C12.1628 13.4558 12.2105 13.436 12.2457 13.4009C12.2809 13.3657 12.3006 13.318 12.3006 13.2683C12.3006 13.2186 12.2809 13.1709 12.2457 13.1357C12.2105 13.1005 12.1628 13.0808 12.1131 13.0808H11.4493V11.75C11.4493 11.5431 11.6175 11.375 11.8243 11.375H12.7223V12.0379C12.7223 12.0876 12.7421 12.1353 12.7772 12.1704C12.8124 12.2056 12.8601 12.2254 12.9098 12.2254C12.9595 12.2254 13.0072 12.2056 13.0424 12.1704C13.0775 12.1353 13.0973 12.0876 13.0973 12.0379V11.375H14.0619V12.038C14.0619 12.0877 14.0816 12.1354 14.1168 12.1705C14.152 12.2057 14.1997 12.2255 14.2494 12.2255C14.2991 12.2255 14.3468 12.2057 14.382 12.1705C14.4171 12.1354 14.4369 12.0877 14.4369 12.038V11.375H15.4014V12.038C15.4014 12.0877 15.4212 12.1354 15.4564 12.1705C15.4915 12.2057 15.5392 12.2255 15.5889 12.2255C15.6387 12.2255 15.6864 12.2057 15.7215 12.1705C15.7567 12.1354 15.7764 12.0877 15.7764 12.038V11.375H16.741V12.038C16.741 12.0877 16.7608 12.1354 16.7959 12.1705C16.8311 12.2057 16.8788 12.2255 16.9285 12.2255C16.9783 12.2255 17.026 12.2057 17.0611 12.1705C17.0963 12.1354 17.116 12.0877 17.116 12.038V11.375H18.0807V12.038C18.0807 12.0877 18.1005 12.1354 18.1356 12.1705C18.1708 12.2057 18.2185 12.2255 18.2682 12.2255C18.3179 12.2255 18.3656 12.2057 18.4008 12.1705C18.436 12.1354 18.4557 12.0877 18.4557 12.038V11.375H19.4203V12.038C19.4203 12.0877 19.4401 12.1354 19.4752 12.1705C19.5104 12.2057 19.5581 12.2255 19.6078 12.2255C19.6575 12.2255 19.7052 12.2057 19.7404 12.1705C19.7756 12.1354 19.7953 12.0877 19.7953 12.038V11.375H20.7599V12.038C20.7599 12.0877 20.7797 12.1354 20.8148 12.1705C20.85 12.2057 20.8977 12.2255 20.9474 12.2255C20.9971 12.2255 21.0448 12.2057 21.08 12.1705C21.1152 12.1354 21.1349 12.0877 21.1349 12.038V11.375H22.1004C22.4356 11.375 22.6025 11.7781 22.3657 12.0151L12.0895 22.2956ZM15.2738 34.5157C14.5523 34.5157 13.9655 33.9391 13.9655 33.2302V32.6604C13.9655 32.4536 14.1337 32.2854 14.3405 32.2854H26.6567C26.8635 32.2854 27.0317 32.4536 27.0317 32.6604V33.2302C27.0317 33.7479 27.2726 34.211 27.6497 34.5157H15.2738ZM30.018 33.2302C30.018 33.9359 29.432 34.5271 28.6902 34.5147C27.8584 34.4538 27.4067 33.8497 27.4067 33.2302V32.6604C27.4067 32.2469 27.0703 31.9104 26.6567 31.9104H16.1964V18.7174L19.2502 15.6624H30.636C30.2712 15.9556 30.0191 16.4331 30.0181 16.9451L30.018 16.9479V33.2302Z" fill="#FFF9F9" stroke="black" stroke-width="2" mask="url(#path-13-inside-1_1360_1064)"/>
<path d="M26.8502 17.6667H19.3648C18.8154 17.6667 18.3684 18.1138 18.3684 18.6632V19.8915C18.3684 19.9412 18.3882 19.9889 18.4234 20.024C18.4585 20.0592 18.5062 20.079 18.5559 20.079C18.6057 20.079 18.6534 20.0592 18.6885 20.024C18.7237 19.9889 18.7434 19.9412 18.7434 19.8915V18.6632C18.7434 18.3205 19.0222 18.0418 19.3648 18.0418H22.9201V18.84C22.9201 18.8898 22.9398 18.9375 22.975 18.9726C23.0102 19.0078 23.0579 19.0275 23.1076 19.0275C23.1573 19.0275 23.205 19.0078 23.2402 18.9726C23.2753 18.9375 23.2951 18.8898 23.2951 18.84V18.0418H26.8503C27.193 18.0418 27.4717 18.3205 27.4717 18.6632V23.3512H23.2951V20.0887C23.2951 20.0389 23.2753 19.9912 23.2402 19.9561C23.205 19.9209 23.1573 19.9012 23.1076 19.9012C23.0579 19.9012 23.0102 19.9209 22.975 19.9561C22.9398 19.9912 22.9201 20.0389 22.9201 20.0887V23.3512H18.7435V22.093C18.7435 22.0433 18.7237 21.9956 18.6886 21.9604C18.6534 21.9252 18.6057 21.9055 18.556 21.9055C18.5063 21.9055 18.4586 21.9252 18.4234 21.9604C18.3882 21.9956 18.3685 22.0433 18.3685 22.093V28.9072C18.3685 29.4566 18.8155 29.9036 19.3649 29.9036H26.8503C27.3997 29.9036 27.8468 29.4566 27.8468 28.9072V28.1061C27.8468 28.0786 27.8407 28.0514 27.8291 28.0265C27.8174 28.0017 27.8004 27.9796 27.7793 27.9621L26.0985 26.5606C26.0796 26.5449 26.0578 26.5329 26.0343 26.5256C26.0107 26.5183 25.986 26.5156 25.9615 26.5179C25.937 26.5201 25.9131 26.5271 25.8913 26.5386C25.8695 26.5501 25.8502 26.5657 25.8345 26.5846C25.8187 26.6036 25.8068 26.6254 25.7995 26.6489C25.7922 26.6724 25.7895 26.6971 25.7918 26.7216C25.794 26.7462 25.801 26.77 25.8125 26.7918C25.8239 26.8136 25.8395 26.8329 25.8585 26.8487L27.4718 28.1939V28.9072C27.4718 29.2499 27.193 29.5286 26.8504 29.5286H21.8962V28.6975C21.8962 28.6478 21.8764 28.6001 21.8413 28.5649C21.8061 28.5298 21.7584 28.51 21.7087 28.51C21.659 28.51 21.6113 28.5298 21.5761 28.5649C21.541 28.6001 21.5212 28.6478 21.5212 28.6975V29.5286H19.365C19.0223 29.5286 18.7436 29.2499 18.7436 28.9072V25.9277H19.6989C19.7487 25.9277 19.7964 25.908 19.8315 25.8728C19.8667 25.8377 19.8864 25.79 19.8864 25.7402C19.8864 25.6905 19.8667 25.6428 19.8315 25.6077C19.7964 25.5725 19.7487 25.5527 19.6989 25.5527H18.7436V23.7262H21.5212V25.5527H20.7595C20.7098 25.5527 20.6621 25.5724 20.6269 25.6076C20.5917 25.6428 20.572 25.6905 20.572 25.7402C20.572 25.7899 20.5917 25.8376 20.6269 25.8728C20.6621 25.9079 20.7098 25.9277 20.7595 25.9277H21.5212V27.4488C21.5212 27.4986 21.541 27.5462 21.5761 27.5814C21.6113 27.6166 21.659 27.6363 21.7087 27.6363C21.7584 27.6363 21.8061 27.6166 21.8413 27.5814C21.8764 27.5462 21.8962 27.4986 21.8962 27.4488V23.7262H27.4718V26.0359C27.4718 26.0856 27.4916 26.1333 27.5268 26.1685C27.5619 26.2036 27.6096 26.2234 27.6593 26.2234C27.7091 26.2234 27.7568 26.2036 27.7919 26.1685C27.8271 26.1333 27.8468 26.0856 27.8468 26.0359V18.6632C27.8467 18.1138 27.3996 17.6667 26.8502 17.6667ZM34.9028 22.5149L33.986 20.8289C33.8037 20.4935 33.3213 20.4937 33.1391 20.8289C32.1806 22.5942 32.2268 22.5018 32.2128 22.5392C32.1999 22.5736 32.202 22.5851 32.1997 22.6042L32.1999 33.6352C32.1999 34.3868 32.8113 34.9982 33.5629 34.9982C34.3144 34.9982 34.9257 34.3868 34.9257 33.6352L34.9258 22.6042C34.9258 22.5855 34.9136 22.5347 34.9028 22.5149ZM33.0855 21.7122H34.0395L34.4226 22.4167H32.7023L33.0855 21.7122ZM34.5508 22.7919L34.5507 31.8242H32.5746V22.7919H34.5508ZM32.5746 32.8516V32.1992H34.5507V32.8516H32.5746ZM33.6565 21.0079L33.8356 21.3372H33.2894L33.4685 21.0079C33.509 20.9334 33.6158 20.9333 33.6565 21.0079ZM33.5628 34.6232C33.0181 34.6232 32.5749 34.18 32.5749 33.6352V33.2275H34.5507V33.6352C34.5507 34.1799 34.1076 34.6232 33.5628 34.6232ZM18.1821 13.1836H13.4473C13.3975 13.1836 13.3498 13.2033 13.3147 13.2385C13.2795 13.2737 13.2598 13.3214 13.2598 13.3711V18.1059C13.2598 18.143 13.2708 18.1792 13.2914 18.2101C13.312 18.2409 13.3413 18.2649 13.3755 18.2791C13.4098 18.2933 13.4475 18.297 13.4838 18.2897C13.5202 18.2825 13.5536 18.2647 13.5798 18.2385L18.3147 13.5036C18.3409 13.4774 18.3588 13.444 18.366 13.4076C18.3732 13.3712 18.3695 13.3335 18.3554 13.2992C18.3411 13.265 18.3171 13.2357 18.2863 13.2152C18.2554 13.1946 18.2192 13.1836 18.1821 13.1836ZM13.6348 17.6533V13.5586H17.7295L13.6348 17.6533Z" fill="black"/>
</g>
<defs>
<clipPath id="clip0_1360_1064">
<rect width="24" height="24" fill="white" transform="translate(11 11)"/>
</clipPath>
</defs>
</svg>

<svg xmlns="http://www.w3.org/2000/svg" width="47" height="47" fill="none"><circle cx="23.5" cy="23.5" r="22" fill="#EEEDEB" stroke="#3B2E16" stroke-width="3"/><g clip-path="url(#a)"><path fill="#FEFEFE" d="M17.506 15.313c-.826 0-1.496.66-1.496 1.472v15.15h11.21v1.133c0 .644.419 1.19 1.002 1.39.242.053.412.083.491.083.826 0 1.493-.66 1.493-1.473V16.786c0-.814.668-1.474 1.494-1.474z"/><path fill="#000" d="M18.715 19.023v9.208a3.71 3.71 0 0 0 3.711 3.706H16.01V16.789c0-.814.671-1.477 1.495-1.477h4.921a3.71 3.71 0 0 0-3.71 3.711" opacity=".05"/><path fill="#E6E8E7" d="M30.206 18.67v-1.72c0-.814.667-1.473 1.493-1.473s1.493.66 1.493 1.473v1.158c0 .31-.252.563-.562.563zm-1.493 16.035H15.274c-.826 0-1.496-.66-1.496-1.474v-.57c0-.31.252-.562.563-.562h12.878v1.133c0 .813.668 1.473 1.494 1.473"/><path fill="#fff" d="M32.387 22.606h2.35v9.407h-2.35z"/><path fill="#000" d="M32.387 22.606h.971v9.407h-.971z" opacity=".05"/><path fill="#E6E8E7" d="M32.387 32.012h2.35v1.028h-2.35z"/><path fill="#fff" d="M32.387 33.04v.595a1.175 1.175 0 0 0 2.35 0v-.596zM34.738 22.606h-2.35l.59-1.08.09-.168a.562.562 0 0 1 .989-.002l.093.17z"/><path fill="#405D6B" d="M34.151 21.527h-1.173l.326-.603a.295.295 0 0 1 .518 0z"/><path fill="#fff" d="M11.262 11.75v10.28c0 .502.606.753.96.398l10.276-10.28a.562.562 0 0 0-.398-.96H11.824a.563.563 0 0 0-.562.562m2.185 1.623h4.735l-4.735 4.735z"/><path fill="#fff" d="M21.539 11.188 11.262 21.469v.561c0 .502.606.752.96.398l10.276-10.28a.562.562 0 0 0-.398-.96z" opacity=".05"/><mask id="b" fill="#fff"><path d="M32.63 18.857a.75.75 0 0 0 .75-.75v-1.159c0-.914-.753-1.658-1.678-1.66H19.625l3.006-3.008A.75.75 0 0 0 22.1 11H11.824a.75.75 0 0 0-.75.75v10.28a.75.75 0 0 0 1.28.53l3.467-3.467V31.91h-1.48a.75.75 0 0 0-.75.75v.57c0 .916.755 1.66 1.683 1.66h13.438c.927 0 1.681-.744 1.681-1.66V18.857zm.374-1.909v1.159a.375.375 0 0 1-.375.375h-2.236v-1.534c0-.709.586-1.285 1.306-1.285s1.305.576 1.305 1.285M12.09 22.296a.375.375 0 0 1-.64-.265v-.537h.663a.187.187 0 1 0 0-.375h-.664v-.965h.664a.187.187 0 1 0 0-.375h-.664v-.965h.664a.187.187 0 1 0 0-.375h-.664v-.964h.664a.188.188 0 0 0 0-.375h-.664v-.965h.664a.188.188 0 0 0 0-.375h-.664v-.964h.664a.188.188 0 0 0 0-.375h-.664v-.965h.664a.188.188 0 0 0 0-.375h-.664V11.75c0-.207.168-.375.375-.375h.898v.663a.187.187 0 0 0 .375 0v-.663h.965v.663a.187.187 0 1 0 .375 0v-.663h.964v.663a.187.187 0 0 0 .375 0v-.663h.965v.663a.187.187 0 0 0 .375 0v-.663h.965v.663a.187.187 0 0 0 .375 0v-.663h.964v.663a.187.187 0 0 0 .375 0v-.663h.965v.663a.187.187 0 0 0 .375 0v-.663h.965c.336 0 .502.403.266.64zm3.184 12.22a1.3 1.3 0 0 1-1.308-1.286v-.57c0-.206.168-.375.375-.375h12.316c.206 0 .375.169.375.375v.57c0 .518.24.981.618 1.286zm14.744-1.286c0 .706-.586 1.297-1.328 1.285-.832-.061-1.283-.665-1.283-1.285v-.57a.75.75 0 0 0-.75-.75h-10.46V18.717l3.053-3.055h11.386c-.365.294-.617.771-.618 1.283V33.23"/></mask><path fill="#FFF9F9" stroke="#000" stroke-width="2" d="M32.63 18.857a.75.75 0 0 0 .75-.75v-1.159c0-.914-.753-1.658-1.678-1.66H19.625l3.006-3.008A.75.75 0 0 0 22.1 11H11.824a.75.75 0 0 0-.75.75v10.28a.75.75 0 0 0 1.28.53l3.467-3.467V31.91h-1.48a.75.75 0 0 0-.75.75v.57c0 .916.755 1.66 1.683 1.66h13.438c.927 0 1.681-.744 1.681-1.66V18.857zm.374-1.909v1.159a.375.375 0 0 1-.375.375h-2.236v-1.534c0-.709.586-1.285 1.306-1.285s1.305.576 1.305 1.285ZM12.09 22.296a.375.375 0 0 1-.64-.265v-.537h.663a.187.187 0 1 0 0-.375h-.664v-.965h.664a.187.187 0 1 0 0-.375h-.664v-.965h.664a.187.187 0 1 0 0-.375h-.664v-.964h.664a.188.188 0 0 0 0-.375h-.664v-.965h.664a.188.188 0 0 0 0-.375h-.664v-.964h.664a.188.188 0 0 0 0-.375h-.664v-.965h.664a.188.188 0 0 0 0-.375h-.664V11.75c0-.207.168-.375.375-.375h.898v.663a.187.187 0 0 0 .375 0v-.663h.965v.663a.187.187 0 1 0 .375 0v-.663h.964v.663a.187.187 0 0 0 .375 0v-.663h.965v.663a.187.187 0 0 0 .375 0v-.663h.965v.663a.187.187 0 0 0 .375 0v-.663h.964v.663a.187.187 0 0 0 .375 0v-.663h.965v.663a.187.187 0 0 0 .375 0v-.663h.965c.336 0 .502.403.266.64zm3.184 12.22a1.3 1.3 0 0 1-1.308-1.286v-.57c0-.206.168-.375.375-.375h12.316c.206 0 .375.169.375.375v.57c0 .518.24.981.618 1.286zm14.744-1.286c0 .706-.586 1.297-1.328 1.285-.832-.061-1.283-.665-1.283-1.285v-.57a.75.75 0 0 0-.75-.75h-10.46V18.717l3.053-3.055h11.386c-.365.294-.617.771-.618 1.283V33.23Z" mask="url(#b)"/><path fill="#000" d="M26.85 17.667h-7.485a1 1 0 0 0-.997.996v1.229a.187.187 0 0 0 .375 0v-1.229c0-.343.28-.621.622-.621h3.555v.798a.187.187 0 1 0 .375 0v-.798h3.555c.343 0 .622.278.622.621v4.688h-4.177V20.09a.188.188 0 1 0-.375 0v3.262h-4.177v-1.258a.188.188 0 0 0-.374 0v6.814c0 .55.447.997.996.997h7.485c.55 0 .997-.447.997-.997v-.8a.19.19 0 0 0-.068-.145l-1.68-1.401a.188.188 0 1 0-.24.288l1.613 1.345v.713a.62.62 0 0 1-.622.622h-4.954v-.831a.188.188 0 0 0-.375 0v.83h-2.156a.62.62 0 0 1-.621-.62v-2.98h.955a.187.187 0 1 0 0-.375h-.955v-1.827h2.777v1.827h-.762a.187.187 0 1 0 0 .375h.762v1.52a.188.188 0 0 0 .375 0v-3.722h5.576v2.31a.188.188 0 0 0 .375 0v-7.373a1 1 0 0 0-.997-.996m8.053 4.848-.917-1.686a.482.482 0 0 0-.847 0c-.958 1.765-.912 1.673-.926 1.71-.013.035-.011.046-.013.065v11.031c0 .752.611 1.363 1.363 1.363.751 0 1.363-.611 1.363-1.363v-11.03a.3.3 0 0 0-.023-.09m-1.817-.803h.953l.384.705h-1.72zm1.465 1.08v9.032h-1.976v-9.032zm-1.976 10.06v-.653h1.976v.653zm1.081-11.844.18.33h-.547l.18-.33a.107.107 0 0 1 .188 0m-.093 13.615a.99.99 0 0 1-.988-.988v-.407h1.976v.407a.99.99 0 0 1-.988.988m-15.38-21.44h-4.736a.187.187 0 0 0-.187.188v4.735a.188.188 0 0 0 .32.132l4.735-4.734a.187.187 0 0 0-.133-.32m-4.548 4.47V13.56h4.095z"/></g><defs><clipPath id="a"><path fill="#fff" d="M11 11h24v24H11z"/></clipPath></defs></svg>
